public/share/facebook-icon.svg

<svg xmlns="http://www.w3.org/2000/svg" xmlns:vectornator="http://vectornator.io" xml:space="preserve" stroke-miterlimit="10" style="fill-rule:nonzero;clip-rule:evenodd;stroke-linecap:round;stroke-linejoin:round" viewBox="0 0 1024 1024"><g vectornator:layerName="Layer 1"><g vectornator:layerName="g"><path vectornator:layerName="path" fill="#701a75" d="M1023.47 511.736C1023.47 229.254 794.217 0 511.735 0S0 229.254 0 511.736c0 255.605 187.092 467.467 432.155 505.414V659.302h-130.7V511.736h130.7V398.954c0-128.066 75.891-199.213 192.889-199.213 55.864 0 113.836 10.54 113.836 10.54v124.904h-64.296c-63.77 0-83.796 40.053-83.796 80.107v95.917h142.295l-22.662 147.566H590.788v357.845c245.59-37.417 432.682-249.279 432.682-504.884Z"/></g></g></svg>

<?xml version="1.0" encoding="UTF-8" standalone="no"?>
<!DOCTYPE svg PUBLIC "-//W3C//DTD SVG 1.1//EN" "http://www.w3.org/Graphics/SVG/1.1/DTD/svg11.dtd">
<!-- Created with Vectornator (http://vectornator.io/) -->
<svg height="100%" stroke-miterlimit="10" style="fill-rule:nonzero;clip-rule:evenodd;stroke-linecap:round;stroke-linejoin:round;" version="1.1" viewBox="0 0 1024 1024" width="100%" xml:space="preserve" xmlns="http://www.w3.org/2000/svg" xmlns:vectornator="http://vectornator.io" xmlns:xlink="http://www.w3.org/1999/xlink">
<defs/>
<g id="Layer-1" vectornator:layerName="Layer 1">
<g opacity="1" vectornator:layerName="g">
<path d="M1023.47 511.736C1023.47 229.254 794.217 0 511.735 0C229.253 0 0 229.254 0 511.736C0 767.341 187.092 979.203 432.155 1017.15L432.155 659.302L301.455 659.302L301.455 511.736L432.155 511.736L432.155 398.954C432.155 270.888 508.046 199.741 625.044 199.741C680.908 199.741 738.88 210.281 738.88 210.281L738.88 335.185L674.584 335.185C610.814 335.185 590.788 375.238 590.788 415.292L590.788 511.209L733.083 511.209L710.421 658.775L590.788 658.775L590.788 1016.62C836.378 979.203 1023.47 767.341 1023.47 511.736Z" fill="#701a75" fill-rule="nonzero" opacity="1" stroke="none" vectornator:layerName="path"/>
</g>
</g>
</svg>
